X:1
T:Title
%%score { ( 1 3 ) | ( 2 4 ) }
L:1/8
Q:1/4=96
M:4/4
K:Ab
V:1 treble nm="Grand Piano"
V:3 treble 
V:2 treble 
V:4 treble 
V:1
 c4 c2 B2 | z4 z2 c2 | [DFA]2 [CEA]2 [CFA]2 [FB]2 | [=EGc]8 | [CFA]4 [CFA]2 [B,FB]2 | %5
w: Cuthbert~Howard * *|||||
 [B,EG]4 [G,E]4 | [B,G]2 [A,CF]2 [A,C]2 [A,B,=D]2 | [G,B,E]8 | [A,E]4 [A,EA]2 [A,EG]2 | %9
w: ||||
 [A,DF]4 [=A,EF]4 | [Fd]2 d2 d2 d2 | [Gd]8 | [Ac]4 [EAc]2 [E_Gc]2 | [EFc]2 [DFB]2 [A,F]2 [DA]2 | %14
w: |||||
 [EA]2 z2 A2 z2 | [CA]8 |] %16
w: ||
V:2
 [A,EA]4 [A,EA]2 [A,DA]2 | [A,FA]6 .[A,EA]2 | A,2 A,G, F,2 D,2 | C,8 | F,4 E,2 =D,2 | E,4 E,4 | %6
 A,,2 A,,2 B,,2 B,,2 | E,6 D,2 | C,4 C,2 C,2 | D,4 C,4 | %10
 [B,,B,]2[K:treble] [A,B,F]2 [G,B,E]2[K:bass] [F,B,F]2 | [E,B,]8 | z2 C2 A,2 A,2 | %13
 D,2 D,2 D,2 F,2 | z2[K:treble] A2 z2 G2 | A,,8 |] %16
V:3
 x8 | d6 z G | x8 | x8 | x8 | x8 | x8 | x8 | x8 | x8 | x8 | x8 | x8 | x8 | C4 [DB]4 | x8 |] %16
V:4
 x8 | x8 | x8 | x8 | x8 | x8 | x8 | x8 | x8 | x8 | x2[K:treble] x4[K:bass] x2 | x8 | A,4 z4 | x8 | %14
 E,4[K:treble] E,4 | x8 |] %16

